src/assets/Vector (46).svg

<svg width="58" height="79" viewBox="0 0 58 79" fill="none" xmlns="http://www.w3.org/2000/svg">
<path fill-rule="evenodd" clip-rule="evenodd" d="M1.2158 0.874004L0.841797 1.24786V6.21289V11.1779L1.2158 11.5518C1.57305 11.9092 1.67481 11.9258 3.50096 11.9258H5.41211V27.6896V43.4535L3.12695 48.0363L0.841797 52.6191V59.1345V65.65L1.19432 65.9813C1.66278 66.4213 2.37118 66.4118 2.79576 65.96C3.12375 65.6108 3.12695 65.5511 3.12695 59.8662V54.125H29.1777H55.2285V65.1699V76.2148H29.1777H3.12695V72.7803V69.3455L2.75295 68.9717C2.27642 68.495 1.69233 68.495 1.2158 68.9717L0.841797 69.3455V73.5488V77.7521L1.2158 78.126L1.58965 78.5H29.1777H56.7658L57.1397 78.126L57.5137 77.7521V65.1856V52.6191L55.2285 48.0363L52.9434 43.4535V36.2319V29.0104L52.5419 28.6947C52.0095 28.2758 51.4891 28.2959 51.0322 28.7529L50.6582 29.1268V35.9131V42.6992H35.6548H20.6514L20.9678 42.0921C21.1419 41.7582 21.3189 41.227 21.3614 40.9115L21.4387 40.3379L30.2975 40.3284C38.8017 40.3193 42.4364 40.1857 45.0977 39.7841C47.0627 39.4877 47.4696 39.0983 47.8405 37.1605C48.5592 33.4035 48.5592 21.2215 47.8405 17.4645C47.3813 15.0644 47.0288 14.8942 41.6699 14.4852C38.2314 14.2227 20.1241 14.2227 16.6855 14.4852C11.3267 14.8942 10.9742 15.0644 10.515 17.4645C9.79626 21.2215 9.79626 33.4035 10.515 37.1605C10.8904 39.1223 11.3115 39.512 13.3911 39.8213L14.5527 39.9941L14.5561 40.6231C14.562 41.7472 15.3637 43.0111 16.4157 43.5552L16.8379 43.7734V45.5215V47.2695H16.0265C15.3754 47.2695 15.1498 47.3392 14.8839 47.6221C14.444 48.0905 14.4534 48.7989 14.9053 49.2235C15.24 49.5378 15.3953 49.5547 17.9591 49.5547C20.6239 49.5547 20.6654 49.5497 21.0342 49.1807C21.5109 48.7042 21.5109 48.1201 21.0342 47.6435C20.7361 47.3452 20.5047 47.2695 19.8916 47.2695H19.123V46.127V44.9844H35.1185H51.1139L52.7904 48.3346C53.7124 50.1773 54.4668 51.7198 54.4668 51.7623C54.4668 51.805 43.0867 51.8398 29.1777 51.8398C15.2687 51.8398 3.88867 51.805 3.88867 51.7623C3.88867 51.7198 4.64308 50.1773 5.56506 48.3346L7.24161 44.9844H9.91387C12.5479 44.9844 12.5915 44.979 12.96 44.6104C13.4367 44.1338 13.4367 43.5498 12.96 43.0732C12.5941 42.7071 12.5339 42.6992 10.1416 42.6992H7.69727V27.3125V11.9258H29.1777H50.6582V18.6083C50.6582 25.1383 50.6654 25.3 50.974 25.6923C51.3696 26.1954 52.185 26.2427 52.6387 25.7891C52.9342 25.4935 52.9434 25.2813 52.9434 18.7051V11.9258H54.8545C56.6807 11.9258 56.7824 11.9092 57.1397 11.5518L57.5137 11.1779V6.21289V1.24786L57.1397 0.874004L56.7658 0.5H37.1331H17.5004L17.1691 0.852523C16.7005 1.35145 16.7316 2.07005 17.2393 2.46935C17.6255 2.77327 17.8169 2.78516 22.306 2.78516H26.9713L30.3965 6.21289L33.8216 9.64062H18.4744H3.12695V6.21289V2.78516H8.46584H13.8049L14.1787 2.41115C14.3844 2.20549 14.5527 1.85967 14.5527 1.64258C14.5527 1.42549 14.3844 1.07967 14.1787 0.874004L13.8049 0.5H7.69727H1.58965L1.2158 0.874004ZM33.5957 6.21289L37.0208 9.64062H39.9916H42.9623L39.5371 6.21289L36.112 2.78516H33.1413H30.1706L33.5957 6.21289ZM42.7363 6.21289L46.1615 9.64062H49.1322H52.1029L48.6777 6.21289L45.2526 2.78516H42.2819H39.3112L42.7363 6.21289ZM51.8008 6.13672C53.6428 7.98008 55.1674 9.48828 55.1891 9.48828C55.2108 9.48828 55.2285 7.98008 55.2285 6.13672V2.78516H51.8402H48.4518L51.8008 6.13672ZM20.2173 16.6466C17.0631 16.7689 13.5119 17.0468 13.1049 17.203C12.9947 17.2453 12.8678 17.4292 12.8232 17.6116C12.1605 20.3161 12.1605 34.3089 12.8232 37.0134C12.9269 37.4368 13.0844 37.4917 14.5506 37.6138C15.5903 37.7005 15.8652 37.6691 16.5172 37.3885C17.6881 36.8849 19.258 37.043 20.0307 37.7423C20.738 38.3824 43.063 38.1091 45.2014 37.4342C45.6936 37.2788 45.929 34.9745 46.0405 29.2168C46.1572 23.1886 45.8125 17.5584 45.3076 17.2464C44.4794 16.7345 28.0632 16.3421 20.2173 16.6466ZM17.2119 39.7217C17.0062 39.9273 16.8379 40.2731 16.8379 40.4902C16.8379 40.9881 17.469 41.6328 17.9567 41.6328C18.5722 41.6328 19.0316 41.1444 19.0316 40.4902C19.0316 39.4433 17.9479 38.9855 17.2119 39.7217ZM27.4189 47.6435C27.2133 47.8492 27.0449 48.195 27.0449 48.4121C27.0449 48.6292 27.2133 48.975 27.4189 49.1807C27.7678 49.5297 27.8984 49.5547 29.3727 49.5547C30.8273 49.5547 30.979 49.5267 31.284 49.2022C31.724 48.7337 31.7146 48.0253 31.2627 47.6007C30.9481 47.3052 30.742 47.2695 29.3514 47.2695C27.8997 47.2695 27.7672 47.2951 27.4189 47.6435ZM34.2744 47.6435C34.0687 47.8492 33.9004 48.195 33.9004 48.4121C33.9004 48.6292 34.0687 48.975 34.2744 49.1807C34.6233 49.5297 34.7538 49.5547 36.2282 49.5547C37.6828 49.5547 37.8345 49.5267 38.1395 49.2022C38.5795 48.7337 38.57 48.0253 38.1182 47.6007C37.8036 47.3052 37.5975 47.2695 36.2069 47.2695C34.7552 47.2695 34.6227 47.2951 34.2744 47.6435ZM41.1299 47.6435C40.9242 47.8492 40.7559 48.195 40.7559 48.4121C40.7559 48.6292 40.9242 48.975 41.1299 49.1807C41.4787 49.5297 41.6093 49.5547 43.0837 49.5547C44.5382 49.5547 44.69 49.5267 44.995 49.2022C45.4349 48.7337 45.4255 48.0253 44.9736 47.6007C44.6591 47.3052 44.4529 47.2695 43.0623 47.2695C41.6107 47.2695 41.4781 47.2951 41.1299 47.6435ZM45.25 56.5684C43.4781 56.9316 42.3035 57.6251 41.8407 58.5811C41.5343 59.214 41.5176 59.4762 41.5176 63.6465C41.5176 67.8167 41.5343 68.0789 41.8407 68.7119C42.428 69.9252 44.1332 70.6957 46.5455 70.8377C49.1879 70.9933 51.5189 70.3129 52.4284 69.1205L52.8672 68.5452V63.6465V58.7477L52.4388 58.1862C51.9123 57.4959 50.7965 56.913 49.4594 56.6295C48.368 56.3983 46.2317 56.3672 45.25 56.5684ZM45.654 58.8589C45.2896 58.9307 44.7412 59.1117 44.4353 59.2613L43.8789 59.5332L43.8382 63.5516C43.8108 66.2596 43.8512 67.6345 43.9619 67.768C44.2264 68.0867 45.4686 68.447 46.6502 68.5475C47.8348 68.6484 49.2938 68.4302 50.1436 68.0248L50.6582 67.7796V63.6415V59.5033L50.0869 59.2538C48.861 58.7186 47.1452 58.5657 45.654 58.8589ZM46.4619 61.3545C46.1043 61.7119 46.0879 61.813 46.0879 63.6465C46.0879 65.4799 46.1043 65.5811 46.4619 65.9385C46.9416 66.4184 47.6026 66.4274 48.0419 65.96C48.3468 65.6352 48.373 65.4505 48.373 63.6252C48.373 61.7501 48.354 61.625 48.0205 61.3117C47.5527 60.8723 46.9268 60.8895 46.4619 61.3545Z" fill="white"/>
</svg>

<svg xmlns="http://www.w3.org/2000/svg" width="58" height="79" fill="none" viewBox="0 0 58 79"><path fill="#fff" fill-rule="evenodd" d="m1.216.874-.374.374v9.93l.374.374c.357.357.459.374 2.285.374h1.911v31.527l-2.285 4.583L.842 52.62v13.03l.352.331c.469.44 1.177.43 1.602-.021.328-.35.331-.409.331-6.094v-5.741h52.101v22.09H3.127v-6.869l-.374-.374c-.477-.477-1.06-.477-1.537 0l-.374.374v8.406l.374.374.374.374h55.176l.374-.374.374-.374V52.62l-2.286-4.583-2.285-4.583V29.01l-.401-.315c-.532-.42-1.053-.4-1.51.058l-.374.374v13.572H20.651l.317-.607c.174-.334.35-.865.393-1.18l.078-.574 8.859-.01c8.504-.009 12.138-.142 14.8-.544 1.965-.296 2.372-.686 2.742-2.623.72-3.758.72-15.94 0-19.696-.459-2.4-.811-2.57-6.17-2.98-3.439-.262-21.546-.262-24.984 0-5.36.41-5.712.58-6.171 2.98-.719 3.756-.719 15.939 0 19.696.375 1.961.797 2.351 2.876 2.66l1.162.173.003.63c.006 1.123.808 2.387 1.86 2.931l.422.218v3.497h-.812c-.65 0-.876.07-1.142.352-.44.468-.43 1.177.021 1.602.335.314.49.33 3.054.33 2.665 0 2.706-.004 3.075-.373.477-.477.477-1.06 0-1.537-.298-.299-.53-.374-1.142-.374h-.769v-2.286h31.991l1.676 3.35c.922 1.843 1.677 3.386 1.677 3.428 0 .043-11.38.078-25.29.078-13.908 0-25.288-.035-25.288-.078s.754-1.585 1.676-3.427l1.677-3.35h2.672c2.634 0 2.678-.006 3.046-.375.477-.476.477-1.06 0-1.537-.366-.366-.426-.374-2.818-.374H7.697V11.926h42.961v6.682c0 6.53.007 6.692.316 7.084.396.503 1.211.55 1.665.097.295-.296.304-.508.304-7.084v-6.78h1.912c1.826 0 1.927-.016 2.285-.373l.374-.374v-9.93L57.14.874 56.766.5H17.5l-.33.353c-.47.498-.438 1.217.07 1.616.386.304.577.316 5.066.316h4.665l3.425 3.428 3.426 3.428H3.127V2.785h10.678l.374-.374c.205-.206.374-.551.374-.768 0-.218-.169-.563-.374-.769L13.805.5H1.59zm32.38 5.339L37.02 9.64h5.941l-3.425-3.428-3.425-3.428H30.17zm9.14 0 3.425 3.428h5.941l-3.424-3.428-3.425-3.428h-5.941zm9.065-.076c1.842 1.843 3.366 3.351 3.388 3.351s.04-1.508.04-3.351V2.785h-6.777zm-31.584 10.51c-3.154.122-6.705.4-7.112.556-.11.042-.237.226-.282.409-.662 2.704-.662 16.697 0 19.401.104.424.261.479 1.728.6 1.04.087 1.314.056 1.966-.224 1.171-.504 2.741-.346 3.514.353.707.64 23.032.367 25.17-.308.493-.155.728-2.46.84-8.217.116-6.028-.228-11.659-.733-11.97-.829-.512-17.245-.905-25.09-.6m-3.005 23.075c-.206.205-.374.551-.374.768 0 .498.631 1.143 1.119 1.143.615 0 1.075-.489 1.075-1.143 0-1.047-1.084-1.505-1.82-.768m10.207 7.922c-.206.205-.374.551-.374.768s.168.563.374.769c.349.349.48.374 1.954.374 1.454 0 1.606-.028 1.911-.353.44-.468.43-1.177-.021-1.601-.315-.296-.521-.331-1.912-.331-1.451 0-1.584.025-1.932.373m6.855 0c-.205.205-.374.551-.374.768s.169.563.374.769c.35.349.48.374 1.954.374 1.455 0 1.606-.028 1.911-.353.44-.468.431-1.177-.02-1.601-.315-.296-.522-.331-1.912-.331-1.452 0-1.584.025-1.933.373m6.856 0c-.206.205-.374.551-.374.768s.168.563.374.769c.349.349.48.374 1.954.374 1.454 0 1.606-.028 1.911-.353.44-.468.43-1.177-.021-1.601-.315-.296-.521-.331-1.912-.331-1.451 0-1.584.025-1.932.373m4.12 8.924c-1.772.364-2.947 1.057-3.41 2.013-.306.633-.322.895-.322 5.066s.016 4.432.323 5.065c.587 1.213 2.292 1.984 4.704 2.126 2.643.155 4.974-.525 5.883-1.717l.44-.576v-9.798l-.43-.56c-.526-.691-1.642-1.274-2.979-1.557-1.091-.232-3.227-.263-4.209-.062m.404 2.29a6 6 0 0 0-1.219.403l-.556.272-.04 4.019c-.028 2.708.012 4.083.123 4.216.264.319 1.507.679 2.688.78 1.185.1 2.644-.118 3.494-.523l.514-.245V59.5l-.571-.25c-1.226-.534-2.942-.687-4.433-.394m.808 2.497c-.358.357-.374.458-.374 2.292s.016 1.934.374 2.292c.48.48 1.14.488 1.58.021.305-.325.331-.51.331-2.335 0-1.875-.019-2-.352-2.313-.468-.44-1.094-.422-1.56.043" clip-rule="evenodd"/></svg>
